src/static/images/wetter.svg

<svg width="269" height="30" viewBox="0 0 269 30" version="1.1" xmlns="http://www.w3.org/2000/svg" xmlns:xlink="http://www.w3.org/1999/xlink">
<title>wetter</title>
<desc>Created using Figma</desc>
<g id="Canvas" transform="translate(527 170)">
<g id="wetter">
<g id="Vector">
<use xlink:href="#path0_fill" transform="translate(-527 -170)" fill="#BDBDBD"/>
</g>
</g>
</g>
<defs>
<path id="path0_fill" d="M 6.91824 29.3082L 0 6.66667L 8.67924 6.66667L 12.327 22.7044L 12.3899 22.7044L 16.3522 6.66667L 25.8491 6.66667L 29.7484 22.6415L 29.8113 22.6415L 33.7736 6.66667L 41.3208 6.66667L 34.2138 29.3082L 24.8428 29.3082L 20.7547 13.522L 20.6918 13.522L 16.2893 29.3082L 6.91824 29.3082ZM 51.6352 19.6855C 51.5723 22.6415 52.327 25.1572 55.5346 25.1572C 57.9245 25.1572 59.434 24.0252 59.7484 21.8868L 67.673 21.8868C 67.4214 24.8428 65.5346 26.9182 63.3962 28.1761C 61.3836 29.434 58.8679 29.9371 56.2264 29.9371C 47.1698 29.9371 43.5849 26.0377 43.5849 17.1698C 43.5849 10 48.9308 5.91195 55.7862 5.91195C 64.9685 5.91195 67.9245 11.195 67.9245 19.6226L 51.6352 19.6226L 51.6352 19.6855ZM 59.7484 15.0943C 59.7484 13.8994 59.3711 12.6415 58.7421 11.6981C 58.0503 10.7547 57.044 10.1887 55.7862 10.2516C 52.8302 10.3774 52.0755 12.5157 51.8868 15.0943L 59.7484 15.0943L 59.7484 15.0943ZM 74.5912 6.66667L 74.5912 3.27044L 83.1446 -4.79836e-07L 83.1446 6.66667L 88.1132 6.66667L 88.1132 12.0755L 83.1446 12.0755L 83.1446 21.0692C 83.1446 21.6352 82.7673 24.5912 84.7799 24.5912C 85.9119 24.5912 87.1069 24.5912 88.0503 24.4654L 88.0503 29.5598C 86.1006 29.9371 84.717 30 83.4591 30C 77.673 30 74.1509 29.1824 74.5912 22.2641L 74.5912 12.0755L 70.1887 12.0755L 70.1887 6.66667L 74.5912 6.66667L 74.5912 6.66667ZM 94.4025 6.66667L 94.4025 3.27044L 102.956 -4.79836e-07L 102.956 6.66667L 107.925 6.66667L 107.925 12.0755L 102.956 12.0755L 102.956 21.0692C 102.956 21.6352 102.579 24.5912 104.591 24.5912C 105.723 24.5912 106.918 24.5912 107.862 24.4654L 107.862 29.5598C 105.912 29.9371 104.528 30 103.27 30C 97.4843 30 93.9623 29.1824 94.4025 22.2641L 94.4025 12.0755L 90 12.0755L 90 6.66667L 94.4025 6.66667L 94.4025 6.66667ZM 118.868 19.6855C 118.805 22.6415 119.56 25.1572 122.767 25.1572C 125.157 25.1572 126.667 24.0252 126.981 21.8868L 134.906 21.8868C 134.654 24.8428 132.767 26.9182 130.629 28.1761C 128.616 29.434 126.101 29.9371 123.459 29.9371C 114.403 29.9371 110.818 26.0377 110.818 17.1698C 110.818 10 116.164 5.91195 123.019 5.91195C 132.201 5.91195 135.157 11.195 135.157 19.6226L 118.868 19.6226L 118.868 19.6855ZM 126.981 15.0943C 126.981 13.8994 126.604 12.6415 125.975 11.6981C 125.283 10.7547 124.277 10.1887 123.019 10.2516C 120.063 10.3774 119.308 12.5157 119.119 15.0943L 126.981 15.0943L 126.981 15.0943ZM 148.365 10.8805L 148.428 10.8805C 149.434 7.10692 152.201 5.84906 155.975 5.97484L 155.975 13.2075C 155.346 13.1447 154.78 13.1447 154.151 13.1447C 149.686 13.2075 148.176 15.8491 148.302 20.1887L 148.302 29.2453L 139.748 29.2453L 139.748 12.5157C 139.748 10.5031 139.686 9.1195 139.497 6.72956L 148.176 6.72956L 148.365 10.8805L 148.365 10.8805ZM 156.981 29.3082L 156.981 22.5157L 165.094 22.5157L 165.094 29.3082L 156.981 29.3082L 156.981 29.3082ZM 185.786 14.5912C 185.786 13.4591 185.597 12.5786 185.094 11.9497C 184.591 11.3208 183.711 10.9434 182.453 10.9434C 179.371 10.9434 179.182 15.6604 179.182 17.9874C 179.182 20.3145 179.371 25.0314 182.453 25.0314C 185.409 24.7799 185.786 22.5157 185.786 20.5031L 194.34 20.5031C 194.34 23.7107 192.956 26.0377 190.818 27.6101C 188.679 29.1195 185.786 29.9371 182.767 30C 174.214 30 170.314 25.8491 170.314 17.9874C 170.314 9.74843 175.975 5.97484 182.767 5.97484C 188.491 5.91195 193.899 8.11321 194.34 14.5912L 185.786 14.5912L 185.786 14.5912ZM 224.214 17.9874C 224.214 26.3522 218.113 30 211.069 30C 204.025 30 197.925 26.3522 197.925 17.9874C 197.925 9.62264 204.025 5.97484 211.069 5.97484C 218.113 5.97484 224.214 9.62264 224.214 17.9874ZM 211.006 25.0314C 214.591 25.0314 215.409 21.195 215.409 17.9874C 215.409 14.7799 214.654 10.9434 211.006 10.9434C 207.421 10.9434 206.604 14.7799 206.604 17.9874C 206.667 21.195 207.421 25.0314 211.006 25.0314ZM 237.044 10.4403L 237.107 10.4403C 238.679 7.35849 241.635 6.16352 245.031 6.16352C 247.799 6.16352 250.88 7.61006 251.824 10.3774C 253.333 7.67296 256.478 6.16352 259.874 6.03774C 264.717 6.03774 268.365 9.18239 268.365 14.2138L 268.365 29.3711L 259.811 29.3711L 259.811 15.9748C 259.748 13.7736 259.182 11.3836 256.541 11.3836C 252.327 11.3836 252.83 16.0377 252.83 16.2893L 252.83 29.2453L 244.277 29.2453L 244.277 15.9748C 244.214 13.7736 243.648 11.3836 241.006 11.3836C 236.792 11.3836 237.296 16.0377 237.296 16.2893L 237.296 29.2453L 228.742 29.2453L 228.742 12.5157C 228.742 10.5031 228.679 9.1195 228.491 6.72956L 236.981 6.72956L 237.044 10.4403L 237.044 10.4403Z"/>
</defs>
</svg>

<svg width="269" height="30" viewBox="0 0 269 30" xmlns="http://www.w3.org/2000/svg" xmlns:xlink="http://www.w3.org/1999/xlink"><title>wetter</title><desc>Created using Figma</desc><use xlink:href="#a" fill="#BDBDBD"/><defs><path id="a" d="M6.918 29.308L0 6.667h8.68l3.647 16.037h.063l3.962-16.037h9.497l3.9 15.975h.062l3.963-15.975h7.547l-7.107 22.641h-9.371l-4.088-15.786h-.063l-4.403 15.786H6.92zm44.717-9.622c-.063 2.956.692 5.471 3.9 5.471 2.39 0 3.899-1.132 4.213-3.27h7.925c-.252 2.956-2.138 5.031-4.277 6.29-2.012 1.257-4.528 1.76-7.17 1.76-9.056 0-12.641-3.9-12.641-12.767 0-7.17 5.346-11.258 12.201-11.258 9.183 0 12.138 5.283 12.138 13.71H51.635v.064zm8.113-4.592c0-1.195-.377-2.452-1.006-3.396-.692-.943-1.698-1.51-2.956-1.446-2.956.125-3.71 2.264-3.9 4.842h7.862zm14.843-8.427V3.27L83.145 0v6.667h4.968v5.409h-4.968v8.993c0 .566-.378 3.522 1.635 3.522 1.132 0 2.327 0 3.27-.126v5.095c-1.95.377-3.333.44-4.59.44-5.787 0-9.31-.818-8.869-7.736V12.076H70.19v-5.41h4.402zm19.812 0V3.27L102.956 0v6.667h4.969v5.409h-4.969v8.993c0 .566-.377 3.522 1.635 3.522 1.132 0 2.327 0 3.271-.126v5.095c-1.95.377-3.334.44-4.592.44-5.786 0-9.308-.818-8.867-7.736V12.076H90v-5.41h4.403zm24.465 13.019c-.063 2.956.692 5.471 3.899 5.471 2.39 0 3.9-1.132 4.214-3.27h7.925c-.252 2.956-2.139 5.031-4.277 6.29-2.013 1.257-4.528 1.76-7.17 1.76-9.056 0-12.641-3.9-12.641-12.767 0-7.17 5.346-11.258 12.201-11.258 9.182 0 12.138 5.283 12.138 13.71h-16.289v.064zm8.113-4.592c0-1.195-.377-2.452-1.006-3.396-.692-.943-1.698-1.51-2.956-1.446-2.956.125-3.711 2.264-3.9 4.842h7.862zm21.384-4.213h.063c1.006-3.774 3.773-5.032 7.547-4.906v7.232c-.629-.062-1.195-.062-1.824-.062-4.465.063-5.975 2.704-5.849 7.044v9.056h-8.554v-16.73c0-2.012-.062-3.396-.251-5.785h8.679l.189 4.15zm8.616 18.427v-6.792h8.113v6.792h-8.113zm28.805-14.717c0-1.132-.189-2.012-.692-2.641-.503-.63-1.383-1.007-2.641-1.007-3.082 0-3.271 4.717-3.271 7.044 0 2.328.189 7.044 3.271 7.044 2.956-.251 3.333-2.515 3.333-4.528h8.554c0 3.208-1.384 5.535-3.522 7.107-2.139 1.51-5.032 2.327-8.051 2.39-8.553 0-12.453-4.15-12.453-12.013 0-8.239 5.661-12.012 12.453-12.012 5.724-.063 11.132 2.138 11.573 8.616h-8.554zm38.428 3.396c0 8.365-6.101 12.013-13.145 12.013s-13.144-3.648-13.144-12.013c0-8.364 6.1-12.012 13.144-12.012 7.044 0 13.145 3.648 13.145 12.012zm-13.208 7.044c3.585 0 4.403-3.836 4.403-7.044 0-3.207-.755-7.044-4.403-7.044-3.585 0-4.402 3.837-4.402 7.044.063 3.208.817 7.044 4.402 7.044zm26.038-14.59h.063c1.572-3.083 4.528-4.277 7.924-4.277 2.768 0 5.849 1.446 6.793 4.213 1.509-2.704 4.654-4.213 8.05-4.34 4.843 0 8.491 3.145 8.491 8.177V29.37h-8.554V15.975c-.063-2.201-.629-4.591-3.27-4.591-4.214 0-3.711 4.654-3.711 4.905v12.956h-8.553v-13.27c-.063-2.201-.629-4.591-3.271-4.591-4.214 0-3.71 4.654-3.71 4.905v12.956h-8.554v-16.73c0-2.012-.063-3.396-.251-5.785h8.49l.063 3.71z"/></defs></svg>
